resources/images/image-load-error-blue.svg

<svg viewBox="0 0 103 106" fill="none" xmlns="http://www.w3.org/2000/svg">
<rect width="71.4458" height="14.2892" transform="matrix(0.965926 -0.258819 -0.258819 -0.965926 5.42188 35.394)" fill="#5060EE"/>
<path d="M5.5773 35.5479L23.3292 101.799C23.7377 103.323 25.3047 104.228 26.8293 103.82L90.3197 86.8074C91.8443 86.3988 92.749 84.8318 92.3405 83.3072L89.8015 73.8316M68.6187 83.3764L30.7289 93.5289L16.8602 41.7704L35.6592 36.7333M72.1892 8.10139L70.8551 3.12256L60.6652 5.85292M42.0893 10.8303L1.84375 21.6141L5.54206 35.4164L37.4454 26.8679" stroke="#6B7AFF" stroke-width="2" stroke-linecap="round"/>
<path d="M44.3518 15.1465L99.5609 29.9397L85.5074 82.3883C85.0989 83.9129 83.5318 84.8176 82.0072 84.4091L32.3191 71.0952C30.7945 70.6867 29.8898 69.1197 30.2983 67.5951L44.3518 15.1465Z" fill="#6B7AFF"/>
<path d="M49.4045 23.8966L90.8113 34.9915L79.7164 76.3983L38.3096 65.3034L49.4045 23.8966Z" fill="#3D4CD3"/>
<path d="M44.3525 15.1463L99.5616 29.9395L102.52 18.8977L47.3112 4.10449L44.3525 15.1463Z" fill="#3D4CD3"/>
<path d="M70.8732 57.2247C70.1839 53.7935 67.6091 51.0496 64.2286 50.1438C60.848 49.238 57.2462 50.3268 54.9337 52.9537" stroke="#E5E8FF" stroke-width="2" stroke-linecap="round" stroke-linejoin="round"/>
<path d="M59.29 43.5576L59.0253 44.5456" stroke="#E5E8FF" stroke-width="2" stroke-linecap="round" stroke-linejoin="round"/>
<path d="M71.8057 46.9106L71.5409 47.8986" stroke="#E5E8FF" stroke-width="2" stroke-linecap="round" stroke-linejoin="round"/>
</svg>

<svg viewBox="0 0 103 106" fill="none" xmlns="http://www.w3.org/2000/svg"><rect width="71.4458" height="14.2892" transform="matrix(0.965926 -0.258819 -0.258819 -0.965926 5.42188 35.394)" fill="#5060EE"/><path d="m5.577 35.548 17.752 66.251a2.859 2.859 0 0 0 3.5 2.021l63.49-17.013a2.858 2.858 0 0 0 2.022-3.5l-2.54-9.475M68.62 83.376 30.729 93.53 16.86 41.77l18.8-5.037M72.19 8.101l-1.335-4.978-10.19 2.73M42.09 10.83 1.844 21.614l3.698 13.802 31.903-8.548" stroke="#6B7AFF" stroke-width="2" stroke-linecap="round"/><path d="M44.352 15.146 99.56 29.94 85.507 82.388a2.858 2.858 0 0 1-3.5 2.021L32.32 71.095a2.858 2.858 0 0 1-2.02-3.5l14.053-52.448Z" fill="#6B7AFF"/><path d="m49.404 23.897 41.407 11.095-11.095 41.406L38.31 65.303l11.094-41.406ZM44.352 15.146l55.21 14.793 2.958-11.041L47.311 4.104l-2.959 11.042Z" fill="#3D4CD3"/><path d="M70.873 57.225a9.208 9.208 0 0 0-15.94-4.271M59.29 43.558l-.265.988M71.806 46.91l-.265.989" stroke="#E5E8FF" stroke-width="2" stroke-linecap="round" stroke-linejoin="round"/></svg>
